X:1
T:Long Long Ago
C:Thomas Haynes Bayly, 1833
M:3/4
L:1/4
Q:3/4=72
K:G
|: D2 G | G G A | B2 A | G3 |
   D2 G | G G A | B A G | A3 |
   D2 c | B B A | G2 B | e3 |
   d2 B | A G A | B A G | G3 :|
